;FLAVOR:RepRap
;TIME:3668
;Filament used: 5.23197m
;Layer height: 0.5
;Generated with Cura_SteamEngine 2.7.0
G21        ;metric values
G90        ;absolute positioning
M82        ;set extruder to absolute mode
M107       ;start with the fan off
M302
M92 E2000
G28 X0 Y0  ;move X/Y to min endstops
G28 Z0     ;move Z to min endstops
G1 Z15.0 F9000 ;move the platform down 15mm
G92 E0                  ;zero the extruded length
G1 F200 E3              ;extrude 3mm of feed stock
G92 E0                  ;zero the extruded length again
G1 F9000
M117 Printing...
;LAYER_COUNT:11
;LAYER:0
M107
G0 F4500 X88.057 Y44.202 Z0.3
G0 X87.9 Y45.002
;TYPE:SKIRT
G1 F300 X87.94 Y44.594 E0.05546
G1 X88.057 Y44.202 E0.11081
G1 X88.249 Y43.841 E0.16613
G1 X88.507 Y43.523 E0.22153
G1 X88.822 Y43.261 E0.27696
G1 X89.182 Y43.066 E0.33235
G1 X89.573 Y42.944 E0.38777
G1 X90 Y42.9 E0.44584
G1 X115 Y42.9 E3.82812
G1 X115.407 Y42.94 E3.88345
G1 X115.799 Y43.058 E3.93883
G1 X116.161 Y43.25 E3.99427
G1 X116.478 Y43.509 E4.04965
G1 X116.74 Y43.824 E4.10508
G1 X116.935 Y44.184 E4.16047
G1 X117.056 Y44.575 E4.21585
G1 X117.1 Y45.001 E4.27379
G1 X117.096 Y60.926 E6.4283
G1 X117.093 Y61.034 E6.44292
G1 X117.003 Y62.77 E6.6781
G1 X116.99 Y62.917 E6.69806
G1 X116.778 Y64.643 E6.93333
G1 X116.748 Y64.823 E6.95802
G1 X116.207 Y67.375 E7.31095
G1 X116.162 Y67.55 E7.3354
G1 X115.657 Y69.211 E7.57027
G1 X115.61 Y69.35 E7.59013
G1 X114.989 Y70.975 E7.82548
G1 X114.932 Y71.109 E7.84518
G1 X114.2 Y72.686 E8.0804
G1 X114.133 Y72.818 E8.10043
G1 X113.292 Y74.339 E8.33557
G1 X113.219 Y74.462 E8.35492
G1 X112.277 Y75.922 E8.58999
G1 X112.164 Y76.08 E8.61627
G1 X110.006 Y78.828 E9.08898
G1 X109.087 Y80.251 E9.31816
G1 X108.387 Y81.757 E9.54284
G1 X107.906 Y83.342 E9.76694
G1 X107.619 Y85.413 E10.0498
G1 X107.634 Y119.807 E14.703
G1 X107.959 Y121.88 E14.98689
G1 X108.311 Y123.042 E15.15115
G1 X108.987 Y124.565 E15.37658
G1 X109.882 Y126.003 E15.60574
G1 X112.419 Y129.292 E16.16771
G1 X112.539 Y129.466 E16.1963
G1 X113.457 Y130.942 E16.43146
G1 X113.53 Y131.068 E16.45116
G1 X114.344 Y132.605 E16.68647
G1 X114.422 Y132.77 E16.71116
G1 X115.437 Y135.171 E17.06383
G1 X115.512 Y135.377 E17.09349
G1 X116.272 Y137.872 E17.44635
G1 X116.325 Y138.085 E17.47605
G1 X116.82 Y140.644 E17.82867
G1 X116.85 Y140.86 E17.85818
G1 X117.077 Y143.457 E18.21087
G1 X117.085 Y143.638 E18.23538
G1 X117.1 Y159.998 E20.44874
G1 X117.06 Y160.406 E20.50421
G1 X116.943 Y160.798 E20.55955
G1 X116.751 Y161.159 E20.61487
G1 X116.493 Y161.477 E20.67027
G1 X116.178 Y161.739 E20.7257
G1 X115.818 Y161.934 E20.78109
G1 X115.427 Y162.056 E20.83651
G1 X115 Y162.1 E20.89458
G1 X90 Y162.1 E24.27686
G1 X89.593 Y162.06 E24.33219
G1 X89.201 Y161.942 E24.38757
G1 X88.839 Y161.75 E24.44301
G1 X88.522 Y161.491 E24.49839
G1 X88.26 Y161.176 E24.55382
G1 X88.065 Y160.816 E24.60922
G1 X87.944 Y160.425 E24.66459
G1 X87.9 Y159.996 E24.72293
G1 X87.934 Y143.202 E26.99502
G1 X87.942 Y143.024 E27.01912
G1 X88.093 Y141.293 E27.2542
G1 X88.111 Y141.148 E27.27397
G1 X88.382 Y139.431 E27.50914
G1 X88.418 Y139.252 E27.53384
G1 X89.047 Y136.72 E27.88681
G1 X89.111 Y136.511 E27.91638
G1 X89.999 Y134.06 E28.26907
G1 X90.068 Y133.891 E28.29377
G1 X90.8 Y132.314 E28.52899
G1 X90.867 Y132.182 E28.54902
G1 X91.708 Y130.661 E28.78415
G1 X91.781 Y130.538 E28.80351
G1 X92.723 Y129.078 E29.03858
G1 X92.836 Y128.92 E29.06486
G1 X94.994 Y126.172 E29.53757
G1 X95.913 Y124.749 E29.76675
G1 X96.613 Y123.243 E29.99143
G1 X97.094 Y121.658 E30.21552
G1 X97.381 Y119.587 E30.49839
G1 X97.366 Y85.193 E35.15159
G1 X97.041 Y83.12 E35.43548
G1 X96.689 Y81.958 E35.59974
G1 X96.013 Y80.435 E35.82517
G1 X95.118 Y78.997 E36.05433
G1 X92.581 Y75.708 E36.61629
G1 X92.461 Y75.534 E36.64489
G1 X91.543 Y74.058 E36.88005
G1 X91.47 Y73.932 E36.89975
G1 X90.656 Y72.395 E37.13506
G1 X90.578 Y72.23 E37.15975
G1 X89.563 Y69.829 E37.51242
G1 X89.488 Y69.623 E37.54208
G1 X88.728 Y67.128 E37.89494
G1 X88.675 Y66.915 E37.92464
G1 X88.18 Y64.356 E38.27726
G1 X88.15 Y64.14 E38.30677
G1 X87.923 Y61.543 E38.65946
G1 X87.915 Y61.362 E38.68397
G1 X87.9 Y45.002 E40.89733
G0 F4500 X88.74 Y45.001
G1 F300 X88.78 Y44.687 E40.94016
G1 X88.896 Y44.392 E40.98304
G1 X89.083 Y44.136 E41.02593
G1 X89.327 Y43.935 E41.0687
G1 X89.614 Y43.8 E41.11161
G1 X90 Y43.74 E41.16446
G1 X115 Y43.74 E44.54674
G1 X115.314 Y43.78 E44.58956
G1 X115.609 Y43.897 E44.6325
G1 X115.865 Y44.084 E44.67539
G1 X116.066 Y44.328 E44.71816
G1 X116.2 Y44.616 E44.76113
G1 X116.26 Y45 E44.81372
G1 X116.256 Y60.925 E46.96823
G1 X116.254 Y60.99 E46.97702
G1 X116.164 Y62.726 E47.21221
G1 X116.157 Y62.815 E47.22428
G1 X115.945 Y64.541 E47.45955
G1 X115.927 Y64.648 E47.47423
G1 X115.386 Y67.2 E47.82717
G1 X115.359 Y67.306 E47.84196
G1 X114.854 Y68.967 E48.07684
G1 X114.825 Y69.05 E48.08873
G1 X114.204 Y70.675 E48.32409
G1 X114.17 Y70.755 E48.33585
G1 X113.438 Y72.332 E48.57107
G1 X113.398 Y72.412 E48.58317
G1 X112.557 Y73.933 E48.81831
G1 X112.513 Y74.006 E48.82984
G1 X111.571 Y75.466 E49.06491
G1 X111.503 Y75.561 E49.08072
G1 X109.326 Y78.332 E49.55747
G1 X108.346 Y79.851 E49.80203
G1 X107.601 Y81.453 E50.04106
G1 X107.083 Y83.159 E50.28227
G1 X106.779 Y85.356 E50.58234
G1 X106.794 Y119.873 E55.25218
G1 X107.138 Y122.068 E55.55277
G1 X107.522 Y123.332 E55.73149
G1 X108.243 Y124.959 E55.97226
G1 X109.191 Y126.482 E56.21496
G1 X111.754 Y129.805 E56.78272
G1 X111.826 Y129.91 E56.79995
G1 X112.744 Y131.386 E57.03511
G1 X112.787 Y131.461 E57.0468
G1 X113.601 Y132.998 E57.28211
G1 X113.649 Y133.097 E57.29699
G1 X114.664 Y135.498 E57.64966
G1 X114.708 Y135.622 E57.66746
G1 X115.468 Y138.117 E58.02032
G1 X115.5 Y138.245 E58.03817
G1 X115.995 Y140.804 E58.3908
G1 X116.013 Y140.933 E58.40842
G1 X116.24 Y143.53 E58.76111
G1 X116.245 Y143.639 E58.77588
G1 X116.26 Y159.999 E60.98924
G1 X116.22 Y160.313 E61.03206
G1 X116.104 Y160.608 E61.07495
G1 X115.917 Y160.864 E61.11784
G1 X115.673 Y161.065 E61.16061
G1 X115.386 Y161.2 E61.20352
G1 X115 Y161.26 E61.25637
G1 X90 Y161.26 E64.63865
G1 X89.686 Y161.22 E64.68147
G1 X89.391 Y161.103 E64.72441
G1 X89.135 Y160.916 E64.7673
G1 X88.934 Y160.672 E64.81007
G1 X88.8 Y160.384 E64.85304
G1 X88.74 Y159.997 E64.90602
G1 X88.774 Y143.203 E67.17811
G1 X88.779 Y143.097 E67.19246
G1 X88.93 Y141.366 E67.42754
G1 X88.94 Y141.279 E67.43939
G1 X89.211 Y139.562 E67.67456
G1 X89.233 Y139.454 E67.68947
G1 X89.862 Y136.922 E68.04244
G1 X89.9 Y136.797 E68.06012
G1 X90.788 Y134.346 E68.41281
G1 X90.83 Y134.245 E68.42761
G1 X91.562 Y132.668 E68.66282
G1 X91.602 Y132.588 E68.67493
G1 X92.443 Y131.067 E68.91006
G1 X92.487 Y130.994 E68.9216
G1 X93.429 Y129.534 E69.15667
G1 X93.497 Y129.439 E69.17247
G1 X95.674 Y126.668 E69.64922
G1 X96.654 Y125.149 E69.89379
G1 X97.399 Y123.547 E70.13281
G1 X97.917 Y121.841 E70.37403
G1 X98.221 Y119.644 E70.67409
G1 X98.206 Y85.127 E75.34394
G1 X97.862 Y82.932 E75.64452
G1 X97.478 Y81.668 E75.82325
G1 X96.757 Y80.041 E76.06401
G1 X95.809 Y78.518 E76.30672
G1 X93.246 Y75.195 E76.87448
G1 X93.174 Y75.09 E76.8917
G1 X92.256 Y73.614 E77.12686
G1 X92.213 Y73.539 E77.13856
G1 X91.399 Y72.002 E77.37386
G1 X91.351 Y71.903 E77.38875
G1 X90.336 Y69.502 E77.74142
G1 X90.292 Y69.378 E77.75922
G1 X89.532 Y66.883 E78.11208
G1 X89.5 Y66.755 E78.12993
G1 X89.005 Y64.196 E78.48256
G1 X88.987 Y64.067 E78.50018
G1 X88.76 Y61.47 E78.85287
G1 X88.755 Y61.361 E78.86763
G1 X88.74 Y45.001 E81.081
G0 F4500 X89.58 Y45
G1 F300 X89.619 Y44.822 E81.10565
G1 X89.73 Y44.678 E81.13025
G1 X89.892 Y44.594 E81.15494
G1 X90 Y44.58 E81.16967
G1 X115 Y44.58 E84.55195
G1 X115.178 Y44.62 E84.57663
G1 X115.322 Y44.731 E84.60123
G1 X115.406 Y44.892 E84.6258
G1 X115.42 Y45 E84.64053
G1 X115.416 Y60.925 E86.79504
G1 X115.415 Y60.947 E86.79802
G1 X115.325 Y62.683 E87.0332
G1 X115.323 Y62.712 E87.03713
G1 X115.111 Y64.438 E87.2724
G1 X115.105 Y64.474 E87.27734
G1 X114.564 Y67.026 E87.63027
G1 X114.555 Y67.061 E87.63516
G1 X114.05 Y68.722 E87.87004
G1 X114.04 Y68.75 E87.87406
G1 X113.419 Y70.375 E88.10942
G1 X113.408 Y70.402 E88.11336
G1 X112.676 Y71.979 E88.34858
G1 X112.663 Y72.005 E88.35251
G1 X111.822 Y73.526 E88.58765
G1 X111.807 Y73.551 E88.59159
G1 X110.865 Y75.011 E88.82666
G1 X110.842 Y75.042 E88.83189
G1 X108.645 Y77.84 E89.31318
G1 X107.611 Y79.44 E89.57092
G1 X106.812 Y81.159 E89.82738
G1 X106.26 Y82.977 E90.08442
G1 X105.939 Y85.299 E90.40156
G1 X105.954 Y119.94 E95.08818
G1 X106.317 Y122.257 E95.40547
G1 X106.733 Y123.627 E95.59917
G1 X107.498 Y125.351 E95.85435
G1 X108.499 Y126.961 E96.11083
G1 X111.089 Y130.318 E96.68447
G1 X111.113 Y130.353 E96.69021
G1 X112.031 Y131.829 E96.92537
G1 X112.045 Y131.854 E96.92925
G1 X112.859 Y133.391 E97.16455
G1 X112.875 Y133.424 E97.16951
G1 X113.89 Y135.825 E97.52218
G1 X113.905 Y135.867 E97.52821
G1 X114.665 Y138.362 E97.88108
G1 X114.675 Y138.404 E97.88692
G1 X115.17 Y140.963 E98.23955
G1 X115.176 Y141.006 E98.24542
G1 X115.403 Y143.603 E98.59811
G1 X115.405 Y143.64 E98.60312
G1 X115.42 Y160 E100.81649
G1 X115.381 Y160.178 E100.84114
G1 X115.27 Y160.322 E100.86574
G1 X115.108 Y160.406 E100.89043
G1 X115 Y160.42 E100.90516
G1 X90 Y160.42 E104.28744
G1 X89.822 Y160.38 E104.31212
G1 X89.678 Y160.269 E104.33672
G1 X89.594 Y160.108 E104.36129
G1 X89.58 Y159.999 E104.37615
G1 X89.614 Y143.205 E106.64824
G1 X89.616 Y143.17 E106.65298
G1 X89.767 Y141.439 E106.88806
G1 X89.77 Y141.41 E106.892
G1 X90.041 Y139.693 E107.12717
G1 X90.048 Y139.657 E107.13214
G1 X90.677 Y137.125 E107.4851
G1 X90.69 Y137.083 E107.49105
G1 X91.578 Y134.632 E107.84374
G1 X91.592 Y134.598 E107.84872
G1 X92.324 Y133.021 E108.08394
G1 X92.337 Y132.995 E108.08787
G1 X93.178 Y131.474 E108.32301
G1 X93.193 Y131.449 E108.32695
G1 X94.135 Y129.989 E108.56202
G1 X94.158 Y129.958 E108.56724
G1 X96.355 Y127.16 E109.04854
G1 X97.389 Y125.56 E109.30627
G1 X98.188 Y123.841 E109.56273
G1 X98.74 Y122.023 E109.81978
G1 X99.061 Y119.701 E110.13691
G1 X99.046 Y85.06 E114.82353
G1 X98.683 Y82.743 E115.14083
G1 X98.267 Y81.373 E115.33453
G1 X97.502 Y79.649 E115.5897
G1 X96.501 Y78.039 E115.84619
G1 X93.911 Y74.682 E116.41982
G1 X93.887 Y74.647 E116.42557
G1 X92.969 Y73.171 E116.66073
G1 X92.955 Y73.146 E116.6646
G1 X92.141 Y71.609 E116.89991
G1 X92.125 Y71.576 E116.90487
G1 X91.11 Y69.175 E117.25754
G1 X91.095 Y69.133 E117.26357
G1 X90.335 Y66.638 E117.61643
G1 X90.325 Y66.596 E117.62228
G1 X89.83 Y64.037 E117.9749
G1 X89.824 Y63.994 E117.98078
G1 X89.597 Y61.397 E118.33347
G1 X89.595 Y61.36 E118.33848
G1 X89.58 Y45 E120.55184
G0 F4500 X90.42 Y45.42
;TYPE:WALL-OUTER
G1 F300 X114.16 Y45.42 E123.76365
G1 X114.58 Y45.42 E123.82048
G1 X114.58 Y45.84 E123.85724
G1 X114.576 Y60.911 E125.89621
G1 X114.547 Y61.765 E126.01182
G1 X114.488 Y62.617 E126.12736
G1 X114.397 Y63.482 E126.24504
G1 X114.28 Y64.315 E126.35884
G1 X114.133 Y65.156 E126.47435
G1 X113.956 Y65.993 E126.59009
G1 X113.746 Y66.837 E126.70776
G1 X113.515 Y67.645 E126.82145
G1 X113.253 Y68.458 E126.93701
G1 X112.961 Y69.262 E127.05274
G1 X112.643 Y70.055 E127.16833
G1 X112.296 Y70.837 E127.28407
G1 X111.924 Y71.605 E127.39953
G1 X111.524 Y72.36 E127.51512
G1 X111.097 Y73.102 E127.63094
G1 X110.639 Y73.839 E127.74834
G1 X110.162 Y74.55 E127.86417
G1 X109.67 Y75.231 E127.97783
G1 X109.145 Y75.906 E128.09352
G1 X108.271 Y76.953 E128.27804
G1 X107.963 Y77.349 E128.34591
G1 X107.669 Y77.755 E128.41373
G1 X107.39 Y78.172 E128.48161
G1 X107.126 Y78.597 E128.5493
G1 X106.875 Y79.032 E128.61724
G1 X106.641 Y79.475 E128.68503
G1 X106.421 Y79.926 E128.75291
G1 X106.218 Y80.386 E128.82094
G1 X106.031 Y80.85 E128.88862
G1 X105.86 Y81.322 E128.95654
G1 X105.705 Y81.799 E129.0244
G1 X105.568 Y82.281 E129.09219
G1 X105.447 Y82.768 E129.16008
G1 X105.343 Y83.258 E129.22785
G1 X105.256 Y83.753 E129.29584
G1 X105.187 Y84.249 E129.36359
G1 X105.135 Y84.747 E129.43134
G1 X105.1 Y85.248 E129.49928
G1 X105.082 Y85.75 E129.56724
G1 X105.08 Y119.003 E134.06608
G1 X105.088 Y119.502 E134.13359
G1 X105.115 Y120.002 E134.20134
G1 X105.158 Y120.502 E134.26923
G1 X105.219 Y120.999 E134.33698
G1 X105.297 Y121.495 E134.40491
G1 X105.393 Y121.987 E134.47273
G1 X105.505 Y122.476 E134.5406
G1 X105.634 Y122.96 E134.60836
G1 X105.78 Y123.44 E134.67624
G1 X105.943 Y123.915 E134.74418
G1 X106.122 Y124.383 E134.81197
G1 X106.318 Y124.845 E134.87987
G1 X106.529 Y125.299 E134.9476
G1 X106.756 Y125.747 E135.01555
G1 X106.998 Y126.186 E135.08337
G1 X107.255 Y126.617 E135.15126
G1 X107.528 Y127.038 E135.21914
G1 X107.814 Y127.449 E135.28688
G1 X108.115 Y127.851 E135.35483
G1 X108.429 Y128.24 E135.42246
G1 X108.872 Y128.761 E135.51498
G1 X109.401 Y129.418 E135.6291
G1 X109.914 Y130.101 E135.74467
G1 X110.403 Y130.803 E135.86041
G1 X110.875 Y131.533 E135.97802
G1 X111.306 Y132.254 E136.09167
G1 X111.726 Y133.015 E136.20926
G1 X112.107 Y133.765 E136.32307
G1 X112.467 Y134.54 E136.43868
G1 X112.806 Y135.341 E136.55636
G1 X113.107 Y136.129 E136.67048
G1 X113.248 Y136.528 E136.72773
G1 X113.512 Y137.346 E136.84402
G1 X113.636 Y137.763 E136.90288
G1 X113.857 Y138.591 E137.01882
G1 X114.046 Y139.411 E137.13267
G1 X114.208 Y140.249 E137.24814
G1 X114.343 Y141.108 E137.36578
G1 X114.398 Y141.518 E137.42175
G1 X114.487 Y142.372 E137.53791
G1 X114.522 Y142.805 E137.59669
G1 X114.565 Y143.647 E137.71075
G1 X114.58 Y144.51 E137.82752
G1 X114.58 Y159.58 E139.86636
G1 X90.84 Y159.58 E143.07817
G1 X90.42 Y159.58 E143.13499
G1 X90.42 Y159.16 E143.17176
G1 X90.424 Y144.089 E145.21073
G1 X90.453 Y143.235 E145.32634
G1 X90.512 Y142.383 E145.44188
G1 X90.603 Y141.518 E145.55955
G1 X90.72 Y140.685 E145.67336
G1 X90.867 Y139.844 E145.78886
G1 X91.044 Y139.007 E145.9046
G1 X91.254 Y138.163 E146.02227
G1 X91.485 Y137.355 E146.13597
G1 X91.747 Y136.542 E146.25153
G1 X92.039 Y135.738 E146.36725
G1 X92.357 Y134.945 E146.48284
G1 X92.704 Y134.163 E146.59859
G1 X93.076 Y133.395 E146.71404
G1 X93.476 Y132.64 E146.82963
G1 X93.903 Y131.898 E146.94546
G1 X94.362 Y131.16 E147.06304
G1 X94.838 Y130.45 E147.17868
G1 X95.33 Y129.769 E147.29235
G1 X95.855 Y129.094 E147.40804
G1 X96.729 Y128.047 E147.59255
G1 X97.037 Y127.651 E147.66043
G1 X97.331 Y127.245 E147.72824
G1 X97.61 Y126.828 E147.79612
G1 X97.874 Y126.403 E147.86381
G1 X98.125 Y125.968 E147.93176
G1 X98.359 Y125.525 E147.99954
G1 X98.579 Y125.074 E148.06743
G1 X98.782 Y124.614 E148.13545
G1 X98.969 Y124.15 E148.20313
G1 X99.14 Y123.678 E148.27105
G1 X99.295 Y123.201 E148.33891
G1 X99.432 Y122.719 E148.4067
G1 X99.553 Y122.232 E148.47459
G1 X99.657 Y121.742 E148.54236
G1 X99.744 Y121.247 E148.61036
G1 X99.813 Y120.751 E148.67811
G1 X99.865 Y120.253 E148.74585
G1 X99.9 Y119.752 E148.8138
G1 X99.918 Y119.25 E148.88175
G1 X99.92 Y85.997 E153.38059
G1 X99.912 Y85.498 E153.44811
G1 X99.885 Y84.998 E153.51585
G1 X99.842 Y84.498 E153.58375
G1 X99.781 Y84.001 E153.65149
G1 X99.703 Y83.505 E153.71942
G1 X99.607 Y83.013 E153.78724
G1 X99.495 Y82.524 E153.85511
G1 X99.366 Y82.04 E153.92288
G1 X99.22 Y81.56 E153.99075
G1 X99.057 Y81.085 E154.0587
G1 X98.878 Y80.617 E154.12649
G1 X98.682 Y80.155 E154.19438
G1 X98.471 Y79.701 E154.26211
G1 X98.244 Y79.253 E154.33006
G1 X98.002 Y78.814 E154.39788
G1 X97.745 Y78.383 E154.46577
G1 X97.472 Y77.962 E154.53365
G1 X97.186 Y77.551 E154.6014
G1 X96.885 Y77.149 E154.66934
G1 X96.571 Y76.76 E154.73697
G1 X96.128 Y76.239 E154.8295
G1 X95.599 Y75.582 E154.94362
G1 X95.086 Y74.899 E155.05918
G1 X94.589 Y74.185 E155.17688
G1 X94.125 Y73.467 E155.29253
G1 X93.694 Y72.746 E155.40618
G1 X93.274 Y71.985 E155.52378
G1 X92.893 Y71.235 E155.63759
G1 X92.527 Y70.447 E155.75513
G1 X92.194 Y69.659 E155.87087
G1 X91.889 Y68.861 E155.98645
G1 X91.748 Y68.461 E156.04383
G1 X91.485 Y67.645 E156.15982
G1 X91.364 Y67.237 E156.2174
G1 X91.143 Y66.409 E156.33334
G1 X90.951 Y65.575 E156.44912
G1 X90.792 Y64.751 E156.56266
G1 X90.657 Y63.892 E156.6803
G1 X90.602 Y63.482 E156.73627
G1 X90.512 Y62.617 E156.85392
G1 X90.478 Y62.195 E156.9112
G1 X90.435 Y61.353 E157.02527
G1 X90.42 Y60.49 E157.14204
G1 X90.42 Y45.42 E159.18088
G0 F4500 X90.84 Y45.42
G0 X90.84 Y45.52
G0 X114.201 Y46.488
;TYPE:SKIN
G1 F300 X113.511 Y45.798 E159.31289
G0 F4500 X112.323 Y45.798
