;FLAVOR:RepRap
;TIME:3196
;Filament used: 4.58252m
;Layer height: 0.3
;Generated with Cura_SteamEngine 2.7.0
G21        ;metric values
G90        ;absolute positioning
M82        ;set extruder to absolute mode
M107       ;start with the fan off
M302
M92 E2000
G28 X0 Y0  ;move X/Y to min endstops
G28 Z0     ;move Z to min endstops
G1 Z15.0 F9000 ;move the platform down 15mm
G92 E0                  ;zero the extruded length
G1 F200 E3              ;extrude 3mm of feed stock
G92 E0                  ;zero the extruded length again
G1 F9000
M117 Printing...
;LAYER_COUNT:15
;LAYER:0
M107
G0 F4500 X87.848 Y44.162 Z0.3
;TYPE:SKIRT
G1 F360 X88.04 Y43.778 E0.10649
G1 X88.3 Y43.436 E0.21304
G1 X88.619 Y43.148 E0.31964
G1 X88.985 Y42.925 E0.42595
G1 X89.387 Y42.773 E0.53255
G1 X90 Y42.69 E0.68598
G1 X115 Y42.69 E6.88682
G1 X115.428 Y42.73 E6.99344
G1 X115.84 Y42.848 E7.09974
G1 X116.224 Y43.041 E7.20634
G1 X116.566 Y43.301 E7.31289
G1 X116.853 Y43.621 E7.41951
G1 X117.076 Y43.987 E7.52581
G1 X117.228 Y44.389 E7.63241
G1 X117.31 Y45.001 E7.78557
G1 X117.306 Y60.926 E11.7355
G1 X117.303 Y61.045 E11.76503
G1 X117.213 Y62.781 E12.19619
G1 X117.199 Y62.943 E12.23652
G1 X116.987 Y64.669 E12.66785
G1 X116.954 Y64.866 E12.71739
G1 X116.413 Y67.418 E13.36444
G1 X116.363 Y67.611 E13.41389
G1 X115.858 Y69.272 E13.8445
G1 X115.806 Y69.425 E13.88458
G1 X115.185 Y71.05 E14.31606
G1 X115.122 Y71.198 E14.35596
G1 X114.39 Y72.775 E14.78719
G1 X114.317 Y72.92 E14.82746
G1 X113.476 Y74.441 E15.25854
G1 X113.395 Y74.575 E15.29738
G1 X112.453 Y76.035 E15.72834
G1 X112.329 Y76.21 E15.78154
G1 X110.181 Y78.946 E16.64431
G1 X109.271 Y80.355 E17.06034
G1 X108.583 Y81.834 E17.46493
G1 X108.111 Y83.387 E17.86753
G1 X107.829 Y85.428 E18.37857
G1 X107.844 Y119.793 E26.90225
G1 X108.164 Y121.832 E27.41418
G1 X108.507 Y122.964 E27.70756
G1 X109.177 Y124.474 E28.11731
G1 X110.052 Y125.88 E28.52806
G1 X112.585 Y129.164 E29.55675
G1 X112.718 Y129.355 E29.61448
G1 X113.636 Y130.831 E30.04561
G1 X113.715 Y130.97 E30.08526
G1 X114.529 Y132.507 E30.51665
G1 X114.616 Y132.689 E30.56669
G1 X115.631 Y135.09 E31.21324
G1 X115.713 Y135.316 E31.27288
G1 X116.473 Y137.811 E31.91979
G1 X116.531 Y138.045 E31.97959
G1 X117.026 Y140.604 E32.62607
G1 X117.059 Y140.842 E32.68567
G1 X117.286 Y143.439 E33.33227
G1 X117.295 Y143.638 E33.38168
G1 X117.31 Y159.998 E37.43951
G1 X117.27 Y160.425 E37.54589
G1 X117.152 Y160.838 E37.65242
G1 X116.96 Y161.222 E37.75891
G1 X116.7 Y161.564 E37.86547
G1 X116.381 Y161.852 E37.97207
G1 X116.015 Y162.075 E38.07837
G1 X115.613 Y162.227 E38.18497
G1 X115 Y162.31 E38.3384
G1 X90 Y162.31 E44.53924
G1 X89.572 Y162.27 E44.64586
G1 X89.16 Y162.152 E44.75216
G1 X88.776 Y161.959 E44.85876
G1 X88.434 Y161.699 E44.96532
G1 X88.147 Y161.379 E45.07193
G1 X87.924 Y161.013 E45.17824
G1 X87.772 Y160.611 E45.28484
G1 X87.69 Y159.995 E45.43897
G1 X87.724 Y143.201 E49.60446
G1 X87.733 Y143.005 E49.65313
G1 X87.884 Y141.274 E50.0841
G1 X87.903 Y141.115 E50.12382
G1 X88.174 Y139.398 E50.55497
G1 X88.214 Y139.201 E50.60483
G1 X88.843 Y136.669 E51.25193
G1 X88.913 Y136.439 E51.31157
G1 X89.801 Y133.988 E51.95817
G1 X89.878 Y133.802 E52.0081
G1 X90.61 Y132.225 E52.43933
G1 X90.683 Y132.08 E52.4796
G1 X91.524 Y130.559 E52.91068
G1 X91.605 Y130.425 E52.94952
G1 X92.547 Y128.965 E53.38048
G1 X92.671 Y128.79 E53.43368
G1 X94.819 Y126.054 E54.29645
G1 X95.729 Y124.645 E54.71248
G1 X96.417 Y123.166 E55.11707
G1 X96.889 Y121.613 E55.51967
G1 X97.171 Y119.572 E56.03071
G1 X97.156 Y85.207 E64.55439
G1 X96.836 Y83.168 E65.06632
G1 X96.493 Y82.036 E65.3597
G1 X95.823 Y80.526 E65.76945
G1 X94.948 Y79.12 E66.1802
G1 X92.415 Y75.836 E67.20889
G1 X92.282 Y75.645 E67.26662
G1 X91.364 Y74.169 E67.69775
G1 X91.285 Y74.03 E67.7374
G1 X90.471 Y72.493 E68.16879
G1 X90.384 Y72.311 E68.21883
G1 X89.369 Y69.91 E68.86539
G1 X89.287 Y69.684 E68.92502
G1 X88.527 Y67.189 E69.57193
G1 X88.469 Y66.955 E69.63173
G1 X87.974 Y64.396 E70.27821
G1 X87.941 Y64.158 E70.33781
G1 X87.714 Y61.561 E70.98441
G1 X87.705 Y61.362 E71.03382
G1 X87.69 Y45.002 E75.09165
G1 X87.73 Y44.575 E75.19803
G1 X87.848 Y44.162 E75.30456
G0 F4500 X89.23 Y45.001
G1 F360 X89.27 Y44.756 E75.36614
G1 X89.384 Y44.537 E75.42737
G1 X89.563 Y44.366 E75.48878
G1 X89.786 Y44.26 E75.55002
G1 X90 Y44.23 E75.60362
G1 X115 Y44.23 E81.80446
G1 X115.244 Y44.27 E81.86579
G1 X115.463 Y44.385 E81.92714
G1 X115.634 Y44.563 E81.98836
G1 X115.74 Y44.787 E82.04983
G1 X115.77 Y45 E82.10318
G1 X115.766 Y60.925 E86.05312
G1 X115.765 Y60.965 E86.06304
G1 X115.675 Y62.701 E86.49421
G1 X115.67 Y62.755 E86.50766
G1 X115.458 Y64.481 E86.93898
G1 X115.447 Y64.547 E86.95558
G1 X114.906 Y67.099 E87.60262
G1 X114.89 Y67.163 E87.61899
G1 X114.385 Y68.824 E88.04959
G1 X114.367 Y68.875 E88.06301
G1 X113.746 Y70.5 E88.49449
G1 X113.725 Y70.549 E88.50771
G1 X112.993 Y72.126 E88.93895
G1 X112.969 Y72.175 E88.95248
G1 X112.128 Y73.696 E89.38357
G1 X112.101 Y73.74 E89.39637
G1 X111.159 Y75.2 E89.82733
G1 X111.118 Y75.259 E89.84515
G1 X108.924 Y78.053 E90.72629
G1 X107.918 Y79.611 E91.18628
G1 X107.141 Y81.282 E91.64336
G1 X106.604 Y83.051 E92.1019
G1 X106.289 Y85.325 E92.67132
G1 X106.304 Y119.911 E101.24981
G1 X106.66 Y122.18 E101.81949
G1 X107.061 Y123.503 E102.16238
G1 X107.808 Y125.188 E102.61954
G1 X108.79 Y126.765 E103.08033
G1 X111.366 Y130.105 E104.12653
G1 X111.41 Y130.168 E104.14559
G1 X112.328 Y131.644 E104.57672
G1 X112.354 Y131.691 E104.59004
G1 X113.168 Y133.228 E105.02143
G1 X113.197 Y133.288 E105.03796
G1 X114.212 Y135.689 E105.68452
G1 X114.24 Y135.765 E105.70461
G1 X115 Y138.26 E106.35152
G1 X115.019 Y138.338 E106.37144
G1 X115.514 Y140.897 E107.01792
G1 X115.525 Y140.976 E107.0377
G1 X115.752 Y143.573 E107.6843
G1 X115.755 Y143.639 E107.70069
G1 X115.77 Y159.999 E111.75852
G1 X115.73 Y160.244 E111.8201
G1 X115.616 Y160.463 E111.88133
G1 X115.437 Y160.634 E111.94274
G1 X115.214 Y160.74 E112.00398
G1 X115 Y160.77 E112.05758
G1 X90 Y160.77 E118.25842
G1 X89.756 Y160.73 E118.31975
G1 X89.537 Y160.615 E118.3811
G1 X89.366 Y160.437 E118.44232
G1 X89.26 Y160.213 E118.50379
G1 X89.23 Y159.998 E118.55763
G1 X89.264 Y143.204 E122.72312
G1 X89.267 Y143.139 E122.73926
G1 X89.418 Y141.408 E123.17023
G1 X89.424 Y141.355 E123.18346
G1 X89.695 Y139.638 E123.61461
G1 X89.709 Y139.572 E123.63134
G1 X90.338 Y137.04 E124.27845
G1 X90.361 Y136.964 E124.29815
G1 X91.249 Y134.513 E124.94475
G1 X91.275 Y134.451 E124.96142
G1 X92.007 Y132.874 E125.39266
G1 X92.031 Y132.825 E125.40619
G1 X92.872 Y131.304 E125.83728
G1 X92.899 Y131.26 E125.85008
G1 X93.841 Y129.8 E126.28104
G1 X93.882 Y129.741 E126.29886
G1 X96.076 Y126.947 E127.18
G1 X97.082 Y125.389 E127.63999
G1 X97.859 Y123.718 E128.09707
G1 X98.396 Y121.949 E128.55561
G1 X98.711 Y119.675 E129.12503
G1 X98.696 Y85.089 E137.70352
G1 X98.34 Y82.82 E138.2732
G1 X97.939 Y81.497 E138.61609
G1 X97.192 Y79.812 E139.07325
G1 X96.21 Y78.235 E139.53404
G1 X93.634 Y74.895 E140.58024
G1 X93.59 Y74.832 E140.5993
G1 X92.672 Y73.356 E141.03043
G1 X92.646 Y73.309 E141.04375
G1 X91.832 Y71.772 E141.47514
G1 X91.803 Y71.712 E141.49167
G1 X90.788 Y69.311 E142.13823
G1 X90.76 Y69.235 E142.15832
G1 X90 Y66.74 E142.80523
G1 X89.981 Y66.662 E142.82515
G1 X89.486 Y64.103 E143.47163
G1 X89.475 Y64.024 E143.49141
G1 X89.248 Y61.427 E144.13801
G1 X89.245 Y61.361 E144.1544
G1 X89.23 Y45.001 E148.21223
G0 F4500 X90.77 Y45.77
;TYPE:WALL-OUTER
G1 F360 X113.46 Y45.77 E153.84012
G1 X114.23 Y45.77 E154.0311
G1 X114.23 Y46.54 E154.15462
G1 X114.226 Y60.898 E157.71589
G1 X114.196 Y61.767 E157.93156
G1 X114.14 Y62.58 E158.13369
G1 X114.052 Y63.419 E158.34293
G1 X113.931 Y64.28 E158.55859
G1 X113.791 Y65.084 E158.76101
G1 X113.617 Y65.908 E158.96989
G1 X113.41 Y66.74 E159.18255
G1 X113.182 Y67.537 E159.38816
G1 X112.919 Y68.353 E159.60081
G1 X112.636 Y69.131 E159.80615
G1 X112.313 Y69.936 E160.02129
G1 X111.981 Y70.684 E160.22427
G1 X111.605 Y71.461 E160.43838
G1 X111.211 Y72.204 E160.64697
G1 X110.8 Y72.917 E160.8511
G1 X110.355 Y73.633 E161.0602
G1 X109.871 Y74.355 E161.27579
G1 X109.393 Y75.016 E161.47812
G1 X108.859 Y75.702 E161.69374
G1 X107.998 Y76.733 E162.02691
G1 X107.683 Y77.139 E162.15437
G1 X107.382 Y77.555 E162.28173
G1 X107.096 Y77.982 E162.4092
G1 X106.825 Y78.417 E162.53632
G1 X106.569 Y78.862 E162.66365
G1 X106.328 Y79.316 E162.79114
G1 X106.103 Y79.779 E162.91883
G1 X105.896 Y80.249 E163.04621
G1 X105.704 Y80.725 E163.17351
G1 X105.529 Y81.208 E163.30094
G1 X105.37 Y81.697 E163.42847
G1 X105.23 Y82.191 E163.55583
G1 X105.106 Y82.689 E163.68312
G1 X104.999 Y83.192 E163.81067
G1 X104.91 Y83.699 E163.93835
G1 X104.84 Y84.207 E164.06554
G1 X104.786 Y84.717 E164.19274
G1 X104.75 Y85.23 E164.3203
G1 X104.732 Y85.744 E164.44787
G1 X104.73 Y119.006 E172.69796
G1 X104.738 Y119.514 E172.82398
G1 X104.766 Y120.027 E172.95141
G1 X104.81 Y120.538 E173.07862
G1 X104.872 Y121.048 E173.20605
G1 X104.953 Y121.556 E173.33365
G1 X105.051 Y122.06 E173.461
G1 X105.165 Y122.56 E173.5882
G1 X105.297 Y123.056 E173.7155
G1 X105.447 Y123.548 E173.84308
G1 X105.614 Y124.035 E173.97078
G1 X105.798 Y124.514 E174.09805
G1 X105.998 Y124.987 E174.22543
G1 X106.214 Y125.452 E174.3526
G1 X106.446 Y125.911 E174.48016
G1 X106.694 Y126.361 E174.6076
G1 X106.958 Y126.802 E174.73509
G1 X107.238 Y127.234 E174.86278
G1 X107.531 Y127.654 E174.9898
G1 X107.839 Y128.066 E175.11739
G1 X108.16 Y128.463 E175.24402
G1 X108.592 Y128.972 E175.40961
G1 X109.137 Y129.649 E175.62518
G1 X109.634 Y130.311 E175.8305
G1 X110.109 Y130.993 E176.03664
G1 X110.581 Y131.723 E176.25226
G1 X111.013 Y132.446 E176.46116
G1 X111.407 Y133.161 E176.66365
G1 X111.801 Y133.937 E176.87951
G1 X112.145 Y134.676 E177.08169
G1 X112.484 Y135.477 E177.29743
G1 X112.777 Y136.246 E177.50154
G1 X112.915 Y136.636 E177.60415
G1 X113.182 Y137.463 E177.8197
G1 X113.295 Y137.841 E177.91756
G1 X113.519 Y138.681 E178.13319
G1 X113.702 Y139.477 E178.33577
G1 X113.862 Y140.304 E178.5447
G1 X113.997 Y141.163 E178.76038
G1 X114.049 Y141.555 E178.85846
G1 X114.138 Y142.399 E179.06896
G1 X114.172 Y142.832 E179.17669
G1 X114.215 Y143.653 E179.3806
G1 X114.23 Y144.51 E179.5932
G1 X114.23 Y159.23 E183.24425
G1 X91.54 Y159.23 E188.87214
G1 X90.77 Y159.23 E189.06312
G1 X90.77 Y158.46 E189.18665
G1 X90.774 Y144.102 E192.74791
G1 X90.804 Y143.233 E192.96358
G1 X90.86 Y142.42 E193.16571
G1 X90.948 Y141.581 E193.37495
G1 X91.069 Y140.72 E193.59061
G1 X91.209 Y139.916 E193.79303
G1 X91.383 Y139.092 E194.00192
G1 X91.593 Y138.248 E194.21764
G1 X91.818 Y137.463 E194.42019
G1 X92.085 Y136.636 E194.63573
G1 X92.364 Y135.869 E194.83817
G1 X92.688 Y135.062 E195.05386
G1 X93.019 Y134.316 E195.25629
G1 X93.398 Y133.534 E195.47184
G1 X93.792 Y132.791 E195.68043
G1 X94.2 Y132.083 E195.88311
G1 X94.645 Y131.367 E196.09221
G1 X95.129 Y130.645 E196.3078
G1 X95.607 Y129.984 E196.51013
G1 X96.141 Y129.298 E196.72576
G1 X97.002 Y128.267 E197.05892
G1 X97.317 Y127.861 E197.18638
G1 X97.618 Y127.445 E197.31374
G1 X97.904 Y127.018 E197.44121
G1 X98.175 Y126.583 E197.56833
G1 X98.431 Y126.138 E197.69567
G1 X98.672 Y125.684 E197.82316
G1 X98.897 Y125.221 E197.95084
G1 X99.104 Y124.751 E198.07822
G1 X99.296 Y124.275 E198.20553
G1 X99.471 Y123.792 E198.33295
G1 X99.63 Y123.303 E198.46049
G1 X99.77 Y122.809 E198.58784
G1 X99.894 Y122.311 E198.71513
G1 X100.001 Y121.808 E198.84269
G1 X100.09 Y121.301 E198.97036
G1 X100.16 Y120.793 E199.09755
G1 X100.214 Y120.283 E199.22476
G1 X100.25 Y119.77 E199.35231
G1 X100.268 Y119.256 E199.47988
G1 X100.27 Y85.994 E207.72998
G1 X100.262 Y85.486 E207.85599
G1 X100.234 Y84.973 E207.98342
G1 X100.19 Y84.462 E208.11064
G1 X100.128 Y83.952 E208.23807
G1 X100.047 Y83.444 E208.36566
G1 X99.949 Y82.94 E208.49301
G1 X99.835 Y82.44 E208.62021
G1 X99.703 Y81.944 E208.74752
G1 X99.553 Y81.452 E208.87509
G1 X99.386 Y80.965 E209.00279
G1 X99.202 Y80.486 E209.13006
G1 X99.002 Y80.013 E209.25744
G1 X98.786 Y79.548 E209.38461
G1 X98.554 Y79.089 E209.51218
G1 X98.306 Y78.639 E209.63962
G1 X98.042 Y78.198 E209.7671
G1 X97.762 Y77.766 E209.89479
G1 X97.469 Y77.346 E210.02181
G1 X97.161 Y76.934 E210.1494
G1 X96.84 Y76.537 E210.27603
G1 X96.408 Y76.028 E210.44162
G1 X95.863 Y75.351 E210.65719
G1 X95.366 Y74.689 E210.86251
G1 X94.887 Y74.001 E211.07044
G1 X94.419 Y73.277 E211.28427
G1 X93.987 Y72.554 E211.49317
G1 X93.593 Y71.839 E211.69566
G1 X93.199 Y71.063 E211.91152
G1 X92.853 Y70.32 E212.11481
G1 X92.516 Y69.523 E212.32944
G1 X92.223 Y68.754 E212.53356
G1 X92.084 Y68.362 E212.63672
G1 X91.818 Y67.537 E212.85172
G1 X91.699 Y67.138 E212.95499
G1 X91.481 Y66.319 E213.1652
G1 X91.297 Y65.517 E213.3693
G1 X91.138 Y64.695 E213.57696
G1 X91.003 Y63.837 E213.79239
G1 X90.951 Y63.445 E213.89047
G1 X90.86 Y62.58 E214.1062
G1 X90.828 Y62.168 E214.2087
G1 X90.785 Y61.335 E214.41559
G1 X90.77 Y60.49 E214.62521
G1 X90.77 Y45.77 E218.27627
G0 F4500 X91.54 Y45.77
G0 X91.54 Y45.87
G0 X113.536 Y48.199
;TYPE:SKIN
G1 F360 X111.799 Y46.463 E218.88538
G0 F4500 X109.622 Y46.463
G1 F360 X113.535 Y50.377 E220.25813
G1 X113.807 Y50.649
G0 F4500 X113.535 Y52.554
G1 F360 X107.444 Y46.463 E222.39469
G1 X107.172 Y46.191
G0 F4500 X105.266 Y46.463
G1 F360 X113.533 Y54.73 E225.29452
G1 X113.805 Y55.002
G0 F4500 X113.533 Y56.907
G1 F360 X103.088 Y46.463 E228.95817
G1 X102.816 Y46.191
G0 F4500 X100.91 Y46.463
G1 F360 X113.532 Y59.085 E233.38562
G1 X113.804 Y59.357
G0 F4500 X113.519 Y61.25
G1 F360 X98.732 Y46.463 E238.57249
G1 X98.46 Y46.191
G0 F4500 X96.554 Y46.463
G1 F360 X113.369 Y63.277 E244.47056
G1 X113.641 Y63.549
G0 F4500 X113.068 Y65.154
G1 F360 X94.376 Y46.463 E251.02703
G1 X94.104 Y46.191
G0 F4500 X92.198 Y46.463
G1 F360 X112.641 Y66.905 E258.19769
G1 X112.913 Y67.177
G0 F4500 X112.108 Y68.551
G1 F360 X91.462 Y47.904 E265.43992
G1 X91.19 Y47.632
G0 F4500 X91.462 Y50.082
G1 F360 X111.481 Y70.101 E272.46204
G1 X111.753 Y70.373
G0 F4500 X110.765 Y71.563
G1 F360 X91.462 Y52.26 E279.233
G1 X91.19 Y51.988
G0 F4500 X91.462 Y54.438
G1 F360 X109.967 Y72.943 E285.72405
G1 X110.239 Y73.215
G0 F4500 X109.093 Y74.247
G1 F360 X91.462 Y56.615 E291.90869
G1 X91.19 Y56.343
G0 F4500 X91.462 Y58.793
G1 F360 X108.144 Y75.475 E297.76028
G1 X108.416 Y75.747
G0 F4500 X107.165 Y76.675
G1 F360 X91.471 Y60.98 E303.26548
G1 X91.199 Y60.708
G0 F4500 X91.634 Y63.322
G1 F360 X106.285 Y77.972 E308.40448
G1 X106.557 Y78.244
G0 F4500 X105.522 Y79.387
G1 F360 X92.113 Y65.978 E313.10799
G1 X91.841 Y65.706
G0 F4500 X93.12 Y69.163
G1 F360 X104.89 Y80.934 E317.23676
G1 X105.162 Y81.206
G0 F4500 X104.409 Y82.63
G1 F360 X95.617 Y73.838 E320.32075
G1 X95.345 Y73.566
G0 F4500 X99.854 Y80.253
G1 F360 X104.111 Y84.51 E321.81399
G1 X104.383 Y84.782
G0 F4500 X104.038 Y86.615
G1 F360 X100.723 Y83.3 E322.9768
G1 X100.451 Y83.028
G0 F4500 X100.957 Y85.712
G1 F360 X104.038 Y88.793 E324.05753
G1 X104.31 Y89.065
G0 F4500 X104.038 Y90.971
G1 F360 X100.961 Y87.894 E325.13686
G1 X100.689 Y87.622
G0 F4500 X100.961 Y90.071
G1 F360 X104.038 Y93.149 E326.21636
G1 X104.31 Y93.421
G0 F4500 X104.038 Y95.327
G1 F360 X100.961 Y92.249 E327.29586
G1 X100.689 Y91.977
G0 F4500 X100.961 Y94.427
G1 F360 X104.038 Y97.505 E328.37536
G1 X104.31 Y97.777
G0 F4500 X104.038 Y99.682
G1 F360 X100.961 Y96.605 E329.45469
G1 X100.689 Y96.333
G0 F4500 X100.961 Y98.783
G1 F360 X104.038 Y101.86 E330.53402
G1 X104.31 Y102.132
G0 F4500 X104.038 Y104.038
G1 F360 X100.961 Y100.961 E331.61335
G1 X100.689 Y100.689
G0 F4500 X100.96 Y103.138
G1 F360 X104.038 Y106.215 E332.69285
G1 X104.31 Y106.487
G0 F4500 X104.038 Y108.393
G1 F360 X100.96 Y105.316 E333.77235
G1 X100.688 Y105.044
G0 F4500 X100.96 Y107.494
G1 F360 X104.038 Y110.571 E334.85185
G1 X104.31 Y110.843
G0 F4500 X104.038 Y112.749
G1 F360 X100.96 Y109.672 E335.93136
G1 X100.688 Y109.4
G0 F4500 X100.96 Y111.85
G1 F360 X104.038 Y114.927 E337.01086
G1 X104.31 Y115.199
G0 F4500 X104.038 Y117.105
G1 F360 X100.96 Y114.028 E338.09036
G1 X100.688 Y113.756
G0 F4500 X100.96 Y116.205
G1 F360 X104.041 Y119.286 E339.17109
G1 X104.313 Y119.558
G0 F4500 X104.275 Y121.698
G1 F360 X100.96 Y118.383 E340.3339
G1 X100.688 Y118.111
G0 F4500 X100.887 Y120.488
G1 F360 X105.145 Y124.746 E341.82749
