;FLAVOR:RepRap
;TIME:6657
;Filament used: 0.853972m
;Layer height: 0.3
;Generated with Cura_SteamEngine 2.7.0
G21        ;metric values
G90        ;absolute positioning
M82        ;set extruder to absolute mode
M107       ;start with the fan off
M302
M92 E2000
G28 X0 Y0  ;move X/Y to min endstops
G28 Z0     ;move Z to min endstops
G1 Z15.0 F9000 ;move the platform down 15mm
G92 E0                  ;zero the extruded length
G1 F200 E3              ;extrude 3mm of feed stock
G92 E0                  ;zero the extruded length again
G1 F9000
M117 Printing...
;LAYER_COUNT:12
;LAYER:0
M107
G0 F3000 X90.42 Y45.42 Z0.3
;TYPE:WALL-OUTER
G1 F240 X114.16 Y45.42 E0.7775
G1 X114.58 Y45.42 E0.79126
G1 X114.58 Y45.84 E0.80016
G1 X114.576 Y60.911 E1.29375
G1 X114.547 Y61.765 E1.32173
G1 X114.488 Y62.617 E1.3497
G1 X114.397 Y63.482 E1.37819
G1 X114.28 Y64.315 E1.40574
G1 X114.133 Y65.156 E1.4337
G1 X113.956 Y65.993 E1.46172
G1 X113.746 Y66.837 E1.4902
G1 X113.515 Y67.645 E1.51772
G1 X113.253 Y68.458 E1.5457
G1 X112.961 Y69.262 E1.57371
G1 X112.643 Y70.055 E1.6017
G1 X112.296 Y70.837 E1.62972
G1 X111.924 Y71.605 E1.65766
G1 X111.524 Y72.36 E1.68565
G1 X111.097 Y73.102 E1.71368
G1 X110.639 Y73.839 E1.7421
G1 X110.162 Y74.55 E1.77014
G1 X109.67 Y75.231 E1.79766
G1 X109.145 Y75.906 E1.82566
G1 X108.271 Y76.953 E1.87033
G1 X107.963 Y77.349 E1.88676
G1 X107.669 Y77.755 E1.90318
G1 X107.39 Y78.172 E1.91961
G1 X107.126 Y78.597 E1.936
G1 X106.875 Y79.032 E1.95244
G1 X106.641 Y79.475 E1.96885
G1 X106.421 Y79.926 E1.98529
G1 X106.218 Y80.386 E2.00175
G1 X106.031 Y80.85 E2.01814
G1 X105.86 Y81.322 E2.03458
G1 X105.705 Y81.799 E2.05101
G1 X105.568 Y82.281 E2.06742
G1 X105.447 Y82.768 E2.08385
G1 X105.343 Y83.258 E2.10026
G1 X105.256 Y83.753 E2.11672
G1 X105.187 Y84.249 E2.13312
G1 X105.135 Y84.747 E2.14952
G1 X105.1 Y85.248 E2.16596
G1 X105.082 Y85.75 E2.18242
G1 X105.08 Y119.003 E3.27148
G1 X105.088 Y119.502 E3.28782
G1 X105.115 Y120.002 E3.30422
G1 X105.158 Y120.502 E3.32066
G1 X105.219 Y120.999 E3.33706
G1 X105.297 Y121.495 E3.3535
G1 X105.393 Y121.987 E3.36992
G1 X105.505 Y122.476 E3.38635
G1 X105.634 Y122.96 E3.40275
G1 X105.78 Y123.44 E3.41919
G1 X105.943 Y123.915 E3.43563
G1 X106.122 Y124.383 E3.45204
G1 X106.318 Y124.845 E3.46848
G1 X106.529 Y125.299 E3.48488
G1 X106.756 Y125.747 E3.50132
G1 X106.998 Y126.186 E3.51774
G1 X107.255 Y126.617 E3.53418
G1 X107.528 Y127.038 E3.55061
G1 X107.814 Y127.449 E3.56701
G1 X108.115 Y127.851 E3.58346
G1 X108.429 Y128.24 E3.59983
G1 X108.872 Y128.761 E3.62223
G1 X109.401 Y129.418 E3.64985
G1 X109.914 Y130.101 E3.67783
G1 X110.403 Y130.803 E3.70585
G1 X110.875 Y131.533 E3.73432
G1 X111.306 Y132.254 E3.76183
G1 X111.726 Y133.015 E3.79029
G1 X112.107 Y133.765 E3.81784
G1 X112.467 Y134.54 E3.84583
G1 X112.806 Y135.341 E3.87432
G1 X113.107 Y136.129 E3.90194
G1 X113.248 Y136.528 E3.9158
G1 X113.512 Y137.346 E3.94395
G1 X113.636 Y137.763 E3.9582
G1 X113.857 Y138.591 E3.98627
G1 X114.046 Y139.411 E4.01383
G1 X114.208 Y140.249 E4.04178
G1 X114.343 Y141.108 E4.07026
G1 X114.398 Y141.518 E4.08381
G1 X114.487 Y142.372 E4.11193
G1 X114.522 Y142.805 E4.12616
G1 X114.565 Y143.647 E4.15377
G1 X114.58 Y144.51 E4.18204
G1 X114.58 Y159.58 E4.67559
G1 X90.84 Y159.58 E5.4531
G1 X90.42 Y159.58 E5.46685
G1 X90.42 Y159.16 E5.47575
G1 X90.424 Y144.089 E5.96934
G1 X90.453 Y143.235 E5.99732
G1 X90.512 Y142.383 E6.02529
G1 X90.603 Y141.518 E6.05378
G1 X90.72 Y140.685 E6.08133
G1 X90.867 Y139.844 E6.10929
G1 X91.044 Y139.007 E6.13731
G1 X91.254 Y138.163 E6.16579
G1 X91.485 Y137.355 E6.19332
G1 X91.747 Y136.542 E6.22129
G1 X92.039 Y135.738 E6.24931
G1 X92.357 Y134.945 E6.27729
G1 X92.704 Y134.163 E6.30531
G1 X93.076 Y133.395 E6.33325
G1 X93.476 Y132.64 E6.36124
G1 X93.903 Y131.898 E6.38928
G1 X94.362 Y131.16 E6.41774
G1 X94.838 Y130.45 E6.44573
G1 X95.33 Y129.769 E6.47325
G1 X95.855 Y129.094 E6.50126
G1 X96.729 Y128.047 E6.54592
G1 X97.037 Y127.651 E6.56235
G1 X97.331 Y127.245 E6.57877
G1 X97.61 Y126.828 E6.5952
G1 X97.874 Y126.403 E6.61159
G1 X98.125 Y125.968 E6.62804
G1 X98.359 Y125.525 E6.64444
G1 X98.579 Y125.074 E6.66088
G1 X98.782 Y124.614 E6.67735
G1 X98.969 Y124.15 E6.69373
G1 X99.14 Y123.678 E6.71017
G1 X99.295 Y123.201 E6.7266
G1 X99.432 Y122.719 E6.74301
G1 X99.553 Y122.232 E6.75944
G1 X99.657 Y121.742 E6.77585
G1 X99.744 Y121.247 E6.79231
G1 X99.813 Y120.751 E6.80871
G1 X99.865 Y120.253 E6.82511
G1 X99.9 Y119.752 E6.84156
G1 X99.918 Y119.25 E6.85801
G1 X99.92 Y85.997 E7.94707
G1 X99.912 Y85.498 E7.96342
G1 X99.885 Y84.998 E7.97981
G1 X99.842 Y84.498 E7.99625
G1 X99.781 Y84.001 E8.01265
G1 X99.703 Y83.505 E8.02909
G1 X99.607 Y83.013 E8.04551
G1 X99.495 Y82.524 E8.06194
G1 X99.366 Y82.04 E8.07835
G1 X99.22 Y81.56 E8.09478
G1 X99.057 Y81.085 E8.11122
G1 X98.878 Y80.617 E8.12763
G1 X98.682 Y80.155 E8.14407
G1 X98.471 Y79.701 E8.16047
G1 X98.244 Y79.253 E8.17692
G1 X98.002 Y78.814 E8.19333
G1 X97.745 Y78.383 E8.20977
G1 X97.472 Y77.962 E8.2262
G1 X97.186 Y77.551 E8.2426
G1 X96.885 Y77.149 E8.25905
G1 X96.571 Y76.76 E8.27542
G1 X96.128 Y76.239 E8.29782
G1 X95.599 Y75.582 E8.32544
G1 X95.086 Y74.899 E8.35342
G1 X94.589 Y74.185 E8.38191
G1 X94.125 Y73.467 E8.40991
G1 X93.694 Y72.746 E8.43742
G1 X93.274 Y71.985 E8.46589
G1 X92.893 Y71.235 E8.49344
G1 X92.527 Y70.447 E8.52189
G1 X92.194 Y69.659 E8.54991
G1 X91.889 Y68.861 E8.57789
G1 X91.748 Y68.461 E8.59178
G1 X91.485 Y67.645 E8.61986
G1 X91.364 Y67.237 E8.63379
G1 X91.143 Y66.409 E8.66186
G1 X90.951 Y65.575 E8.68989
G1 X90.792 Y64.751 E8.71737
G1 X90.657 Y63.892 E8.74585
G1 X90.602 Y63.482 E8.7594
G1 X90.512 Y62.617 E8.78788
G1 X90.478 Y62.195 E8.80175
G1 X90.435 Y61.353 E8.82936
G1 X90.42 Y60.49 E8.85763
G1 X90.42 Y45.42 E9.35118
G0 F3000 X90.84 Y45.42
G0 X90.84 Y45.52
G0 X114.201 Y46.488
;TYPE:SKIN
G1 F240 X113.511 Y45.798 E9.38314
G0 F3000 X112.323 Y45.798
G1 F240 X114.201 Y47.676 E9.47013
G1 X114.349 Y47.824
G0 F3000 X114.2 Y48.863
G1 F240 X111.135 Y45.798 E9.61209
G1 X110.987 Y45.65
G0 F3000 X109.947 Y45.798
G1 F240 X114.2 Y50.051 E9.80907
G1 X114.348 Y50.199
G0 F3000 X114.199 Y51.239
G1 F240 X108.759 Y45.798 E10.06106
G1 X108.611 Y45.65
G0 F3000 X107.571 Y45.798
G1 F240 X114.199 Y52.427 E10.36807
G1 X114.347 Y52.575
G0 F3000 X114.199 Y53.614
G1 F240 X106.383 Y45.798 E10.73008
G1 X106.235 Y45.65
G0 F3000 X105.195 Y45.798
G1 F240 X114.199 Y54.802 E11.14711
G1 X114.347 Y54.95
G0 F3000 X114.198 Y55.989
G1 F240 X104.007 Y45.798 E11.61912
G1 X103.859 Y45.65
G0 F3000 X102.819 Y45.798
G1 F240 X114.198 Y57.177 E12.14616
G1 X114.346 Y57.325
G0 F3000 X114.198 Y58.365
G1 F240 X101.631 Y45.798 E12.72822
G1 X101.483 Y45.65
G0 F3000 X100.443 Y45.798
G1 F240 X114.197 Y59.552 E13.36526
G1 X114.345 Y59.7
G0 F3000 X114.197 Y60.74
G1 F240 X99.255 Y45.798 E14.05732
G1 X99.107 Y45.65
G0 F3000 X98.067 Y45.798
G1 F240 X114.158 Y61.889 E14.80261
G1 X114.306 Y62.037
G0 F3000 X114.068 Y62.986
G1 F240 X96.879 Y45.798 E15.59872
G1 X96.731 Y45.65
G0 F3000 X95.692 Y45.798
G1 F240 X113.936 Y64.042 E16.44372
G1 X114.084 Y64.19
G0 F3000 X113.765 Y65.06
G1 F240 X94.504 Y45.798 E17.33585
G1 X94.356 Y45.65
G0 F3000 X93.316 Y45.798
G1 F240 X113.554 Y66.037 E18.27323
G1 X113.702 Y66.185
G0 F3000 X113.311 Y66.982
G1 F240 X92.128 Y45.798 E19.25437
G1 X91.98 Y45.65
G0 F3000 X90.94 Y45.798
G1 F240 X113.037 Y67.895 E20.27783
G1 X113.185 Y68.043
G0 F3000 X112.734 Y68.78
G1 F240 X90.796 Y46.842 E21.29393
G1 X90.648 Y46.694
G0 F3000 X90.796 Y48.03
G1 F240 X112.403 Y69.637 E22.29469
G1 X112.551 Y69.785
G0 F3000 X112.046 Y70.468
G1 F240 X90.796 Y49.218 E23.27892
G1 X90.648 Y49.07
G0 F3000 X90.796 Y50.406
G1 F240 X111.664 Y71.274 E24.24546
G1 X111.812 Y71.422
G0 F3000 X111.257 Y72.055
G1 F240 X90.796 Y51.594 E25.19314
G1 X90.648 Y51.446
G0 F3000 X90.796 Y52.782
G1 F240 X110.826 Y72.812 E26.12086
G1 X110.974 Y72.96
G0 F3000 X110.374 Y73.548
G1 F240 X90.796 Y53.97 E27.02765
G1 X90.648 Y53.822
G0 F3000 X90.796 Y55.158
G1 F240 X109.899 Y74.261 E27.91244
G1 X110.047 Y74.409
G0 F3000 X109.404 Y74.954
G1 F240 X90.796 Y56.346 E28.7743
G1 X90.648 Y56.198
G0 F3000 X90.796 Y57.534
G1 F240 X108.885 Y75.623 E29.61212
G1 X109.033 Y75.771
G0 F3000 X108.346 Y76.272
G1 F240 X90.796 Y58.722 E30.42497
G1 X90.648 Y58.574
G0 F3000 X90.796 Y59.91
G1 F240 X107.812 Y76.926 E31.2131
G1 X107.96 Y77.074
G0 F3000 X107.309 Y77.611
G1 F240 X90.808 Y61.109 E31.97739
G1 X90.66 Y60.961
G0 F3000 X90.869 Y62.359
G1 F240 X106.844 Y78.333 E32.71728
G1 X106.992 Y78.481
G0 F3000 X106.414 Y79.092
G1 F240 X91.011 Y63.688 E33.43072
G1 X90.863 Y63.54
G0 F3000 X91.245 Y65.11
G1 F240 X106.023 Y79.888 E34.11518
G1 X106.171 Y80.036
G0 F3000 X105.672 Y80.726
G1 F240 X91.597 Y66.65 E34.76711
G1 X91.449 Y66.502
G0 F3000 X92.107 Y68.348
G1 F240 X105.368 Y81.61 E35.38134
G1 X105.516 Y81.758
G0 F3000 X105.113 Y82.542
G1 F240 X92.878 Y70.307 E35.94802
G1 X92.73 Y70.159
G0 F3000 X94.137 Y72.754
G1 F240 X104.911 Y83.528 E36.44704
G1 X105.059 Y83.676
G0 F3000 X104.773 Y84.578
G1 F240 X97.394 Y77.199 E36.78881
G1 X97.246 Y77.051
G0 F3000 X99.04 Y80.033
G1 F240 X104.705 Y85.698 E37.05119
G1 X104.853 Y85.846
G0 F3000 X104.703 Y86.884
G1 F240 X99.718 Y81.899 E37.28208
G1 X99.57 Y81.751
G0 F3000 X100.075 Y83.444
G1 F240 X104.703 Y88.072 E37.49644
G1 X104.851 Y88.22
G0 F3000 X104.703 Y89.26
G1 F240 X100.246 Y84.803 E37.70287
G1 X100.098 Y84.655
G0 F3000 X100.296 Y86.041
G1 F240 X104.703 Y90.448 E37.90699
G1 X104.851 Y90.596
G0 F3000 X104.703 Y91.636
G1 F240 X100.296 Y87.229 E38.1111
G1 X100.148 Y87.081
G0 F3000 X100.296 Y88.417
G1 F240 X104.703 Y92.824 E38.31522
G1 X104.851 Y92.972
G0 F3000 X104.703 Y94.011
G1 F240 X100.296 Y89.605 E38.51932
G1 X100.148 Y89.457
G0 F3000 X100.296 Y90.793
G1 F240 X104.703 Y95.199 E38.72341
G1 X104.851 Y95.347
G0 F3000 X104.703 Y96.387
G1 F240 X100.296 Y91.981 E38.9275
G1 X100.148 Y91.833
G0 F3000 X100.296 Y93.169
G1 F240 X104.703 Y97.575 E39.1316
G1 X104.851 Y97.723
G0 F3000 X104.703 Y98.763
G1 F240 X100.296 Y94.357 E39.33569
G1 X100.148 Y94.209
G0 F3000 X100.296 Y95.544
G1 F240 X104.703 Y99.951 E39.53981
G1 X104.851 Y100.099
G0 F3000 X104.703 Y101.139
G1 F240 X100.296 Y96.732 E39.74393
G1 X100.148 Y96.584
G0 F3000 X100.296 Y97.92
G1 F240 X104.703 Y102.327 E39.94804
G1 X104.851 Y102.475
G0 F3000 X104.702 Y103.514
G1 F240 X100.296 Y99.108 E40.15212
G1 X100.148 Y98.96
G0 F3000 X100.296 Y100.296
G1 F240 X104.702 Y104.702 E40.35619
G1 X104.85 Y104.85
G0 F3000 X104.702 Y105.89
G1 F240 X100.296 Y101.484 E40.56026
G1 X100.148 Y101.336
G0 F3000 X100.296 Y102.671
G1 F240 X104.702 Y107.078 E40.76435
G1 X104.85 Y107.226
G0 F3000 X104.702 Y108.266
G1 F240 X100.296 Y103.859 E40.96845
G1 X100.148 Y103.711
G0 F3000 X100.296 Y105.047
G1 F240 X104.702 Y109.454 E41.17254
G1 X104.85 Y109.602
G0 F3000 X104.702 Y110.642
G1 F240 X100.296 Y106.235 E41.37663
G1 X100.148 Y106.087
G0 F3000 X100.296 Y107.423
G1 F240 X104.702 Y111.83 E41.58073
G1 X104.85 Y111.978
G0 F3000 X104.702 Y113.018
G1 F240 X100.296 Y108.611 E41.78482
G1 X100.148 Y108.463
G0 F3000 X100.296 Y109.799
G1 F240 X104.702 Y114.206 E41.98892
G1 X104.85 Y114.354
G0 F3000 X104.702 Y115.394
G1 F240 X100.296 Y110.987 E42.19301
G1 X100.148 Y110.839
G0 F3000 X100.296 Y112.175
G1 F240 X104.702 Y116.582 E42.39711
G1 X104.85 Y116.73
G0 F3000 X104.702 Y117.77
G1 F240 X100.296 Y113.363 E42.6012
G1 X100.148 Y113.215
G0 F3000 X100.296 Y114.551
G1 F240 X104.702 Y118.957 E42.80527
G1 X104.85 Y119.105
G0 F3000 X104.752 Y120.196
G1 F240 X100.296 Y115.739 E43.01168
G1 X100.148 Y115.591
G0 F3000 X100.296 Y116.927
G1 F240 X104.923 Y121.554 E43.22599
G1 X105.071 Y121.702
G0 F3000 X105.281 Y123.1
G1 F240 X100.296 Y118.115 E43.45688
G1 X100.148 Y117.967
G0 F3000 X100.293 Y119.3
G1 F240 X105.958 Y124.965 E43.71926
G1 X106.106 Y125.113
G0 F3000 X107.604 Y127.799
G1 F240 X100.226 Y120.42 E44.06101
G1 X100.078 Y120.272
G0 F3000 X100.088 Y121.471
G1 F240 X110.861 Y132.244 E44.55998
G1 X111.009 Y132.392
G0 F3000 X112.12 Y134.691
G1 F240 X99.885 Y122.456 E45.12666
G1 X99.737 Y122.308
G0 F3000 X99.63 Y123.389
G1 F240 X112.888 Y136.647 E45.74073
G1 X113.036 Y136.795
G0 F3000 X113.401 Y138.348
G1 F240 X99.326 Y124.273 E46.39263
G1 X99.178 Y124.125
G0 F3000 X98.975 Y125.109
G1 F240 X113.753 Y139.888 E47.07712
G1 X113.901 Y140.036
G0 F3000 X113.989 Y141.312
G1 F240 X98.584 Y125.907 E47.79063
G1 X98.436 Y125.759
G0 F3000 X98.154 Y126.665
G1 F240 X114.129 Y142.64 E48.53054
G1 X114.277 Y142.788
G0 F3000 X114.191 Y143.889
G1 F240 X97.689 Y127.388 E49.29483
G1 X97.541 Y127.24
G0 F3000 X97.186 Y128.073
G1 F240 X114.202 Y145.089 E50.08296
G1 X114.35 Y145.237
G0 F3000 X114.202 Y146.277
G1 F240 X96.652 Y128.726 E50.89584
G1 X96.504 Y128.578
G0 F3000 X96.113 Y129.375
G1 F240 X114.202 Y147.464 E51.73366
G1 X114.35 Y147.612
G0 F3000 X114.202 Y148.652
G1 F240 X95.595 Y130.045 E52.59547
G1 X95.447 Y129.897
G0 F3000 X95.099 Y130.737
G1 F240 X114.202 Y149.84 E53.48026
G1 X114.35 Y149.988
G0 F3000 X114.202 Y151.028
G1 F240 X94.625 Y131.451 E54.387
G1 X94.477 Y131.303
G0 F3000 X94.171 Y132.185
G1 F240 X114.202 Y152.216 E55.31477
G1 X114.35 Y152.364
G0 F3000 X114.202 Y153.404
G1 F240 X93.741 Y132.943 E56.26245
G1 X93.593 Y132.795
G0 F3000 X93.335 Y133.725
G1 F240 X114.202 Y154.592 E57.22894
G1 X114.35 Y154.74
G0 F3000 X114.202 Y155.78
G1 F240 X92.953 Y134.531 E58.21312
G1 X92.805 Y134.383
G0 F3000 X92.595 Y135.361
G1 F240 X114.202 Y156.968 E59.21389
G1 X114.35 Y157.116
G0 F3000 X114.202 Y158.156
G1 F240 X92.265 Y136.219 E60.22994
G1 X92.117 Y136.071
G0 F3000 X91.962 Y137.103
G1 F240 X114.059 Y159.2 E61.25339
G1 X114.207 Y159.348
G0 F3000 X112.871 Y159.2
G1 F240 X91.687 Y138.017 E62.23454
G1 X91.539 Y137.869
G0 F3000 X91.444 Y138.962
G1 F240 X111.683 Y159.2 E63.17192
G1 X111.831 Y159.348
G0 F3000 X110.495 Y159.2
G1 F240 X91.233 Y139.938 E64.06407
G1 X91.085 Y139.79
G0 F3000 X91.063 Y140.956
G1 F240 X109.307 Y159.2 E64.90907
G1 X109.455 Y159.348
G0 F3000 X108.119 Y159.2
G1 F240 X90.93 Y142.011 E65.70521
G1 X90.782 Y141.863
G0 F3000 X90.839 Y143.109
G1 F240 X106.931 Y159.2 E66.45051
G1 X107.079 Y159.348
G0 F3000 X105.743 Y159.2
G1 F240 X90.801 Y144.258 E67.14258
G1 X90.653 Y144.11
G0 F3000 X90.801 Y145.446
G1 F240 X104.555 Y159.2 E67.77962
G1 X104.703 Y159.348
G0 F3000 X103.367 Y159.2
G1 F240 X90.8 Y146.634 E68.36165
G1 X90.652 Y146.486
G0 F3000 X90.8 Y147.822
G1 F240 X102.179 Y159.2 E68.88867
G1 X102.327 Y159.348
G0 F3000 X100.991 Y159.2
G1 F240 X90.8 Y149.01 E69.36066
G1 X90.652 Y148.862
G0 F3000 X90.8 Y150.197
G1 F240 X99.803 Y159.2 E69.77765
G1 X99.951 Y159.348
G0 F3000 X98.615 Y159.2
G1 F240 X90.8 Y151.385 E70.13961
G1 X90.652 Y151.237
G0 F3000 X90.799 Y152.572
G1 F240 X97.428 Y159.2 E70.44662
G1 X97.576 Y159.348
G0 F3000 X96.24 Y159.2
G1 F240 X90.799 Y153.76 E70.69861
G1 X90.651 Y153.612
G0 F3000 X90.798 Y154.947
G1 F240 X95.052 Y159.2 E70.89561
G1 X95.2 Y159.348
G0 F3000 X93.864 Y159.2
G1 F240 X90.798 Y156.135 E71.0376
G1 X90.65 Y155.987
G0 F3000 X90.798 Y157.322
G1 F240 X92.676 Y159.2 E71.12458
G1 X92.824 Y159.348
G0 F3000 X91.488 Y159.2
G1 F240 X90.798 Y158.51 E71.15654
G0 F3000 X91.26 Y158.51
G0 X99.783 Y121.253
G0 X99.957 Y119.25
G0 X99.924 Y84.996
G0 X99.646 Y83.005
G0 X90.49 Y45.49
G0 X90.42 Y45.42
;TIME_ELAPSED:558.100202
;LAYER:1
M106 S255
G0 F4500 X90.42 Y45.42 Z0.6
;TYPE:WALL-OUTER
G1 F240 X114.16 Y45.42 E71.93404
G1 X114.58 Y45.42 E71.9478
G1 X114.58 Y45.84 E71.9567
G1 X114.576 Y60.911 E72.45029
G1 X114.547 Y61.765 E72.47827
G1 X114.488 Y62.617 E72.50624
G1 X114.397 Y63.482 E72.53473
G1 X114.28 Y64.315 E72.56228
G1 X114.133 Y65.156 E72.59024
G1 X113.956 Y65.993 E72.61826
G1 X113.746 Y66.837 E72.64674
G1 X113.515 Y67.645 E72.67426
G1 X113.253 Y68.458 E72.70224
G1 X112.961 Y69.262 E72.73025
G1 X112.643 Y70.055 E72.75824
G1 X112.296 Y70.837 E72.78625
G1 X111.924 Y71.605 E72.8142
G1 X111.524 Y72.36 E72.84219
G1 X111.097 Y73.102 E72.87022
G1 X110.639 Y73.839 E72.89864
G1 X110.162 Y74.55 E72.92668
G1 X109.67 Y75.231 E72.9542
G1 X109.145 Y75.906 E72.9822
G1 X108.271 Y76.953 E73.02687
G1 X107.963 Y77.349 E73.0433
G1 X107.669 Y77.755 E73.05972
G1 X107.39 Y78.172 E73.07615
G1 X107.126 Y78.597 E73.09254
G1 X106.875 Y79.032 E73.10898
